svg/bookmark_plus_outline.svg

<svg xmlns="http://www.w3.org/2000/svg" viewBox="0 0 24 24"><path d="M17 18V5H7v13l5-2.18zm0-15a2 2 0 0 1 2 2v16l-7-3-7 3V5a2 2 0 0 1 2-2zm-6 4h2v2h2v2h-2v2h-2v-2H9V9h2z"/></svg>

<?xml version="1.0" encoding="UTF-8"?><!DOCTYPE svg PUBLIC "-//W3C//DTD SVG 1.1//EN" "http://www.w3.org/Graphics/SVG/1.1/DTD/svg11.dtd"><svg xmlns="http://www.w3.org/2000/svg" xmlns:xlink="http://www.w3.org/1999/xlink" version="1.1" id="mdi-bookmark-plus-outline" width="24" height="24" viewBox="0 0 24 24"><path d="M17,18V5H7V18L12,15.82L17,18M17,3A2,2 0 0,1 19,5V21L12,18L5,21V5C5,3.89 5.9,3 7,3H17M11,7H13V9H15V11H13V13H11V11H9V9H11V7Z" /></svg>
